X: 1
T: BANJO -- REEL
B: Ryan's Mammoth Collection of Fiddle Tunes
R: REEL
M: C|
L: 1/8
Z: Contributed 20000427002757 by Ivan Bradley bradleyi:peoplepc.com
K: G
{F}uG2 |\
G,2z2z2 {F}uG2 | G,2z2z2 AB | cABG "4"AFGA |1 BG"4"AF GA :|2 BGAF G2 |:
vAB |\
cABG "4"AFGA | BG"4"AF GFED | cABG "4"AFGA | BG"4"AF G2 :|
